source/presentation/public/images/icons/types/colorless.svg

<svg width="1em" height="1em" viewBox="0 0 35 35" fill="none" xmlns="http://www.w3.org/2000/svg">
<circle cx="17.5" cy="17.5" r="17.5" fill="#E0E0E0"/>
<path d="M17.2323 4.11697C17.1567 3.82771 16.746 3.82771 16.6703 4.11697L15.8277 7.33888C15.8276 7.33925 15.8275 7.33963 15.8274 7.34L14.5565 12.1993C14.3929 12.8248 13.7501 13.1963 13.1265 13.026C13.1261 13.0259 13.1256 13.0258 13.1252 13.0257L5.06874 10.8152C4.7804 10.736 4.57508 11.0917 4.78776 11.3018L10.7303 17.1736C10.7307 17.174 10.7311 17.1744 10.7314 17.1747C11.1906 17.6296 11.1902 18.372 10.7303 18.8264L7.15751 22.3567C7.15727 22.3569 7.15703 22.3572 7.15679 22.3574L4.78776 24.6982C4.57508 24.9084 4.7804 25.264 5.06874 25.1849L8.28051 24.3036C8.28082 24.3036 8.28113 24.3035 8.28144 24.3034L13.1252 22.9744C13.1256 22.9743 13.126 22.9742 13.1264 22.9741C13.7498 22.8037 14.3926 23.175 14.5564 23.8003C14.5564 23.8005 14.5565 23.8006 14.5565 23.8008L15.8274 28.6601C15.8274 28.6602 15.8275 28.6604 15.8275 28.6606L16.6703 31.8831C16.746 32.1723 17.1567 32.1723 17.2323 31.8831L18.0751 28.6606C18.0752 28.6604 18.0752 28.6602 18.0753 28.6601L19.3462 23.8008C19.5098 23.1752 20.1527 22.8036 20.7763 22.9741C20.7767 22.9742 20.7771 22.9743 20.7775 22.9744L28.8339 25.1849C29.1222 25.264 29.3276 24.9084 29.1149 24.6982L26.7473 22.3588C26.7466 22.3581 26.7459 22.3574 26.7452 22.3567L23.1723 18.8264C23.172 18.826 23.1716 18.8257 23.1712 18.8253C22.7124 18.3708 22.7124 17.6293 23.1712 17.1747C23.1716 17.1744 23.172 17.174 23.1723 17.1736L29.1149 11.3018C29.3276 11.0917 29.1222 10.736 28.8339 10.8152L25.6227 11.6962C25.6222 11.6964 25.6217 11.6965 25.6212 11.6967L20.7775 13.0257C20.1536 13.1969 19.51 12.8254 19.3462 12.1995C19.3462 12.1994 19.3462 12.1996 19.3462 12.1995L17.2323 4.11697Z" fill="black"/>
</svg>

<svg width="1em" height="1em" viewBox="0 0 35 35" xmlns="http://www.w3.org/2000/svg">
<circle cx="17.5" cy="17.5" r="17.5" fill="#E0E0E0"/>
<path d="m17.232 4.117c-0.0756-0.28926-0.4863-0.28926-0.562 0l-0.8426 3.2219c-1e-4 3.7e-4 -2e-4 7.5e-4 -3e-4 0.00112l-1.2709 4.8593c-0.1636 0.6255-0.8064 0.997-1.43 0.8267-4e-4 -1e-4 -9e-4 -2e-4 -0.0013-3e-4l-8.0565-2.2105c-0.28834-0.0792-0.49366 0.2765-0.28098 0.4866l5.9425 5.8718 0.0011 0.0011c0.4592 0.4549 0.4588 1.1973-0.0011 1.6517l-3.5728 3.5303c-2.4e-4 2e-4 -4.8e-4 5e-4 -7.2e-4 7e-4l-2.369 2.3408c-0.21268 0.2102-0.00736 0.5658 0.28098 0.4867l3.2118-0.8813c3.1e-4 0 6.2e-4 -1e-4 9.3e-4 -2e-4l4.8438-1.329 0.0012-3e-4c0.6234-0.1704 1.2662 0.2009 1.43 0.8262 0 2e-4 1e-4 3e-4 1e-4 5e-4l1.2709 4.8593c0 1e-4 1e-4 3e-4 1e-4 5e-4l0.8428 3.2225c0.0757 0.2892 0.4864 0.2892 0.562 0l0.8428-3.2225c1e-4 -2e-4 1e-4 -4e-4 2e-4 -5e-4l1.2709-4.8593c0.1636-0.6256 0.8065-0.9972 1.4301-0.8267l0.0012 3e-4 8.0564 2.2105c0.2883 0.0791 0.4937-0.2765 0.281-0.4867l-2.3676-2.3394-0.0021-0.0021-3.5729-3.5303c-3e-4 -4e-4 -7e-4 -7e-4 -0.0011-0.0011-0.4588-0.4545-0.4588-1.196 0-1.6506 4e-4 -3e-4 8e-4 -7e-4 0.0011-0.0011l5.9426-5.8718c0.2127-0.2101 0.0073-0.5658-0.281-0.4866l-3.2112 0.881c-5e-4 2e-4 -1e-3 3e-4 -0.0015 5e-4l-4.8437 1.329c-0.6239 0.1712-1.2675-0.2003-1.4313-0.8262v0l-2.1139-8.0825z"/>
</svg>
